X: 1
T: Doinna
M: 3/4
L: 1/8
R: waltz
K: Emin
|:e3 def|g3 edA|B4 A2|A3 G=F2|
=f4 e2|e4 A2|e3 def|g3 edA|
[1B4 E2|A3 Bc2|B4 A2|A4 A2:|
[2B4 E2|A3 Bc2|B3 ABc|d3 cB2|A4 E2||
|:A3 Bce|B3 AG2|g4 a2|e3 d^c2|d3 Ade|
[1=f6|e4 d/c/B/d/|c4 A2|B4 A2|G3 BcA|B4 A2|A4 E2:|
[2=f4 a2|e4 d/c/B/d/|c4 A2|B4 A2|G3 BcA|B4 A2|A4 A2||
